!!!!SEGMENT: pl-sa--172-a-v-2--013_szczurowski-jacek--msza-swiateczna-agnus-dei.krn
!!!cenid: 17xx:273
!!!COM: Szczurowski, Jacek
!!!COM-rismID: pe30017605
!!!CDT: 1716/08/15-~1733
!!!CNT: Polish
!!!OPR: Msza świąteczna
!!!OTL: Agnus Dei
!!!OMV: 013
!!!PDT:
!!!AGN: Sacred; Mass
!!!SMS-siglum: PL-SA
!!!SMS-shelfmark: 172/A V 2
!!!SMS-shelfwork: 001-013 M
!!!NIFC-rismSourceID: 1001035618
!!!NIFC-rismChildID: 1001035618
!!!NIFC-islandoraID: none
!!!URL-pdf-islandora:
!!!URL-scan: https://bc.bdsandomierz.pl/dlibra/publication/1506/edition/1474/content @EN{Scan in the Sandomierz Diocese Digital Library} @PL{Skany w portalu Cyfrowa Biblioteka Diecezjalna w Sandomierzu}
!!!IIIF:
!!!ONB-nifc: UWAGA: części Mszy: Kyrie, Christe, Et in terra, Laudamus, Qui tollis, Quoniam, Patrem, Et Incarnatus, Ressurexit, Sanctus, Osanna, Be
!!!AIN: 2 cor 1 organ 2 soprn 2 violn
!!!OMD:
!!!OMD-mod: Adagio
!!!key: D
**kern	**fba	**kern	**kern	**kern	**text	**kern	**text	**kern	**kern
*part7	*	*part6	*part5	*part4	*part4	*part3	*part3	*part2	*part1
*staff7	*	*staff6	*staff5	*staff4	*staff4	*staff3	*staff3	*staff2	*staff1
*I"Orano	*	*I"Violino 2di	*I"Violino. Primo	*I"Soprano 2.do:	*	*I"Soprano Primo.	*	*I"Corno 2.do Ex D:	*I"Corno Primo ex D:
*	*	*mI"Violino II	*mI"Violino I	*mI"Soprano II	*	*mI"Soprano I	*	*mI"Corno II in D	*mI"Corno I in D
*I'or	*	*I'vl 2	*I'vl 1	*I'S 2	*	*I'S 1	*	*I'cor 2 in D	*I'cor 1 in D
*Iorgan	*	*Ivioln	*Ivioln	*Isoprn	*	*Isoprn	*	*Icor	*Icor
*ICklav	*	*ICstr	*ICstr	*ICvox	*	*ICvox	*	*ICbras	*ICbras
*clefF4	*	*clefG2	*clefG2	*clefC1	*	*clefC1	*	*clefG2	*clefG2
*	*	*	*	*mclefG2	*	*mclefG2	*	*	*
*	*	*	*	*	*	*	*	*ITrd6c10	*ITrd6c10
*k[f#c#]	*	*k[f#c#]	*k[f#c#]	*k[c#f#]	*	*k[c#f#]	*	*k[f#c#]	*k[f#c#]
*	*	*	*	*mk[f#c#]	*	*mk[f#c#]	*	*	*
*D:	*	*D:	*D:	*D:	*	*D:	*	*D:	*D:
*M4/4	*	*M4/4	*M4/4	*M4/4	*	*M4/4	*	*M4/4	*M4/4
*met(c)	*	*met(c)	*met(c)	*met(c)	*	*met(c)	*	*met(c)	*met(c)
*mmet(c)	*	*mmet(c)	*mmet(c)	*mmet(c)	*	*mmet(c)	*	*mmet(c)	*mmet(c)
=1	=1	=1	=1	=1	=1	=1	=1	=1	=1
!	!	!	!	!LO:MO:mod=*null:null	!	!	!	!	!
*	*	*	*	*2\right	*	*	*	*	*
!LO:TX:B:i:a:t=Adagio:rj:mod=	!	!LO:TX:B:i:a:t=Adagio:rj:mod=	!LO:TX:B:i:a:t=Adagio:rj:mod=	!LO:TX:B:i:a:t=adagio:rj:mod=	!	!LO:TX:B:i:a:t=adagio:rj:mod=	!	!LO:TX:B:i:a:t=Adagio:mod=	!LO:TX:B:i:a:t=adagio:mod=
8d\L	.	16.dd\LL	16.aa\LL	2dd\	A-	4dd\	A-	8d\L	8f#\L
.	.	32dd\K	32aa\K	.	.	.	.	.	.
8d\	.	16.dd\	16.aa\	.	.	.	.	8d\	8f#\
.	.	32dd\JJk	32aa\JJk	.	.	.	.	.	.
8d\	.	16.dd\LL	16.aa\LL	.	.	4ff#\	.	8f#\	8a\
.	.	32dd\K	32aa\K	.	.	.	.	.	.
8d\J	.	16.dd\	16.aa\	.	.	.	.	8f#\J	8a\J
.	.	32dd\JJk	32aa\JJk	.	.	.	.	.	.
!	!	!	!	!	!	!LO:MO:mod=*null:null	!	!	!
*	*	*	*	*	*	*2\right	*	*	*
8c#\L	6	16.ee\LL	16.aa\LL	2ee\	-gnus	2aa\	-gnus	8e\L	8a\L
.	.	32ee\K	32aa\K	.	.	.	.	.	.
8c#\	.	16.ee\	16.aa\	.	.	.	.	8e\	8a\
.	.	32ee\JJk	32aa\JJk	.	.	.	.	.	.
8c#\	.	16.ee\LL	16.aa\LL	.	.	.	.	8e\	8a\
.	.	32ee\K	32aa\K	.	.	.	.	.	.
8c#\J	.	16.ee\	16.aa\	.	.	.	.	8e\J	8a\J
.	.	32ee\JJk	32aa\JJk	.	.	.	.	.	.
=2	=2	=2	=2	=2	=2	=2	=2	=2	=2
8B\L	7	16.dd\LL	16.aa\LL	1dd	De-	2aa\	De-	8d\L	8a\L
.	.	32dd\K	32aa\K	.	.	.	.	.	.
8B\	.	16.dd\	16.aa\	.	.	.	.	8d\	8a\
.	.	32dd\JJk	32aa\JJk	.	.	.	.	.	.
8B\	.	16.dd\LL	16.aa\LL	.	.	.	.	8d\	8a\
.	.	32dd\K	32aa\K	.	.	.	.	.	.
8B\J	.	16.dd\	16.aa\	.	.	.	.	8d\J	8a\J
.	.	32dd\JJk	32aa\JJk	.	.	.	.	.	.
8E\L	7 #	16.dd\LL	16.gg#X\LL	.	.	2gg#X\	.	8d\L	8g#X\L
.	.	32dd\K	32gg#\K	.	.	.	.	.	.
8E\	.	16.dd\	16.gg#\	.	.	.	.	8d\	8g#\
.	.	32dd\JJk	32gg#\JJk	.	.	.	.	.	.
!	!	!	!LO:LB:g=original	!	!	!	!	!	!
!	!	!	!LO:SIC:s=16.gg#LL	!	!	!	!	!	!
8E\	.	16.dd\LL	16.gg#X\LL	.	.	.	.	8d\	8g#\
.	.	32dd\K	32gg#\K	.	.	.	.	.	.
8E\J	.	16.dd\	16.gg#\	.	.	.	.	8d\J	8g#\J
.	.v	32dd\JJk	32gg#\JJk	.	.	.	.	.	.
!	!	!LO:LB:g=original	!	!	!	!	!	!	!
=3	=3	=3	=3	=3	=3	=3	=3	=3	=3
8A\L	.	16.cc#\LL	16.aa\LL	2cc#\	-i	2aa\	-i	8e\L	8a\L
!	!	!	!LO:MO:mod=!null:null	!	!	!	!	!	!
!	!	!	!LO:N:vis=16	!	!	!	!	!	!
.	.	32cc#\K	32aa\K	.	.	.	.	.	.
8A\	.	16.cc#\	16.aa\	.	.	.	.	8e\	8a\
!	!	!	!LO:MO:mod=!null:null	!	!	!	!	!	!
!	!	!	!LO:N:vis=16	!	!	!	!	!	!
.	.	32cc#\JJk	32aa\JJk	.	.	.	.	.	.
8A\	.	16.cc#\LL	16.aa\LL	.	.	.	.	8e\	8a\
.	.	32cc#\K	32aa\K	.	.	.	.	.	.
8A\J	.	16.cc#\	16.aa\	.	.	.	.	8e\J	8a\J
.	.	32cc#\JJk	32aa\JJk	.	.	.	.	.	.
8C#/L	5	16.ee\LL	16.ggn\LL	2ee\	qui	2ggn\	qui	8e\L	8gn\L
.	.	32ee\K	32gg\K	.	.	.	.	.	.
8C#/	.	16.ee\	16.gg\	.	.	.	.	8e\	8g\
.	.	32ee\JJk	32gg\JJk	.	.	.	.	.	.
8C#/	.	16.ee\LL	16.gg\LL	.	.	.	.	8e\	8g\
.	.	32ee\K	32gg\K	.	.	.	.	.	.
8C#/J	.	16.ee\	16.gg\	.	.	.	.	8e\J	8g\J
.	.	32ee\JJk	32gg\JJk	.	.	.	.	.	.
=4	=4	=4	=4	=4	=4	=4	=4	=4	=4
8D/L	.	16.dd\LL	16.ff#\LL	1dd	tol-	2ff#\	tol-	8d\L	8f#\L
.	.	32dd\K	32ff#\K	.	.	.	.	.	.
8D/	.	16.dd\	16.ff#\	.	.	.	.	8d\	8f#\
.	.	32dd\JJk	32ff#\JJk	.	.	.	.	.	.
8D/	.	16.dd\LL	16.ff#\LL	.	.	.	.	8d\	8f#\
.	.	32dd\K	32ff#\K	.	.	.	.	.	.
8D/J	.	16.dd\	16.ff#\	.	.	.	.	8d\J	8f#\J
.	.	32dd\JJk	32ff#\JJk	.	.	.	.	.	.
8G#X\L	-7	16.dd\LL	16.ffn\LL	.	.	2ffn\	.	8d\L	8fX\L
.	.	32dd\K	32ff\K	.	.	.	.	.	.
8G#\	.	16.dd\	16.ff\	.	.	.	.	8d\	8f\
.	.	32dd\JJk	32ff\JJk	.	.	.	.	.	.
8G#\	.	16.dd\LL	16.ff\LL	.	.	.	.	8d\	8f\
.	.	32dd\K	32ff\K	.	.	.	.	.	.
8G#\J	.	16.dd\	16.ff\	.	.	.	.	8d\J	8f\J
.	.	32dd\JJk	32ff\JJk	.	.	.	.	.	.
=5	=5	=5	=5	=5	=5	=5	=5	=5	=5
8A\L	.	16.cc#\LL	16.ee\LL	8cc#\	-lis	8ee\	-lis	8A\L	8e\L
.	.	32cc#\K	32ee\K	.	.	.	.	.	.
!	!	!	!LO:SIC:s=16.ff	!	!	!	!	!	!
8A\	.	16.dd\	16.ff#\	8dd\	pec-	8ffn\	pec-	8d\	8fn\
!	!	!	!LO:SIC:s=32ffJJk	!	!	!	!	!	!
.	.	32dd\JJk	32ff#\JJk	.	.	.	.	.	.
!	!	!	!LO:LB:g=original	!	!	!LO:LB:g=original	!	!	!
8A\	.	16.ee\LL	16.gg\LL	8ee\	-ca-	8gg\	-ca-	8e\	8g\
.	.	32ee\K	32gg\K	.	.	.	.	.	.
!	!	!	!LO:SIC:s=16.ff	!	!	!LO:SIC:s=8ff	!	!	!
8A\J	.	16.dd\	16.ffn\	8dd\	-ta	8ffn\	-ta	8d\J	8f\J
.	.	32dd\JJk	32ff\JJk	.	.	.	.	.	.
!LO:TX:t=P:problem=mixed beam	!	!	!	!	!	!	!	!	!LO:SIC:s=8fL
8A\L	.	16.dd\LL	16.ff\LL	8dd\	mun-	8ff\	mun-	8d\L	8fn\L
.	.	32cc#\JK	32ee\JK	.	.	.	.	.	.
8A\	.	8cc#\J	8ee\J	8cc#\	-di	8ee\	-di	8A\J	8e\J
8A\	.	8r	8r	8r	.	8r	.	4r	4r
!	!	!LO:SIC:s=8d	!	!LO:SIC:s=8f	!	!	!	!	!
8AA/J	.	8e/	8fn/	8e/	pec-	8dd\	pec-	.	.
!	!	!LO:LB:g=original	!	!	!	!	!	!LO:LB:g=original	!
=6	=6	=6	=6	=6	=6	=6	=6	=6	=6
8AA/L	.	16.c#/LL	16.e/LL	8e/L	-ca-	8cc#\L	-ca-	2r	2r
.	.	32c#/K	32e/K	.	.	.	.	.	.
8AA/	.	16.d/	16.fn/	8fn/	.	8dd\	.	.	.
.	.	32d/JJk	32f/JJk	.	.	.	.	.	.
!	!	!	!	!	!	!LO:SIC:s=8eeJ	!	!	!
8AA/	.	16.e/LL	16.g/LL	8g/J	.	8ee\	.	.	.
.	.	32e/K	32g/K	.	.	.	.	.	.
!	!	!	!	!LO:LB:g=original	!	!LO:SIC:s=8dd	!LO:MO:null:mod=-ta	!	!
8AA/J	.	16.d/	16.f/	8f/	-ta	8dd\J	.	.	.
.	.	32d/JJk	32f/JJk	.	.	.	.	.	.
*	*	*	*	*	*	*Xtuplet	*	*	*
!LO:LB:g=original	!	!	!	!	!	!	!	!	!
!LO:TX:t=P:problem=mixed beam	!	!	!	!LO:SIC:s=8f	!	!LO:N:vis=8	!	!	!
!	!	!	!	!	!	!LO:MO:mod=8dd	!LO:MO:null:mod=mun-	!	!
8AA/L	4	16.d/LL	16.f/LL	8fn/	mun-	16dd\	-ta	4r	4r
!	!	!	!	!	!	!LO:N:vis=8	!	!	!
!	!	!	!	!	!	!LO:MO:mod=.	!	!	!
.	.	.	.	.	.	16dd\	mun-	.	.
.	.	32c#/JK	32e/JK	.	.	.	.	.	.
8AA/	3	8c#/J	8e/J	8e/	-di	8cc#\	-di	.	.
8A\	.	8r	8r	8r	.	8r	.	8r	4e\
!LO:SIC:s=8GJ	!	!	!	!	!LO:MO:mod=mi-	!	!LO:MO:mod=mi-	!	!
8Gn\J	2	8e/	8cc#\	8a\	Mi-	8cc#\	Mi-	8A/	.
!	!	!	!	!	!	!	!	!	!LO:LB:g=original
!!LO:MO:ori
=7	=7	=7	=7	=7	=7	=7	=7	=7	=7
!LO:TX:t=P:problem=zbędne powtórzenie w vl 2	!	!LO:TX:t=P:problem=zbędne powtórzenie taktu nr 6	!LO:TX:t=P:problem=zbędne powtórzenie w vl 2	!LO:TX:t=P:problem=zbędne powtórzenie w vl 2	!	!LO:TX:t=P:problem=zbędne powtórzenie w vl 2	!	!LO:TX:t=P:problem=zbędne powtórzenie w vl 2	!LO:TX:t=P:problem=zbędne powtórzenie w vl 2
1ryy	.	16.c#/LL	1ryy	1ryy	.	1ryy	.	1ryy	1ryy
.	.	32c#/K	.	.	.	.	.	.	.
.	.	16.d/	.	.	.	.	.	.	.
.	.	32d/JJk	.	.	.	.	.	.	.
.	.	16.e/LL	.	.	.	.	.	.	.
.	.	32e/K	.	.	.	.	.	.	.
.	.	16.d/	.	.	.	.	.	.	.
.	.	32d/JJk	.	.	.	.	.	.	.
.	.	16.d/LL	.	.	.	.	.	.	.
.	.	32c#/JK	.	.	.	.	.	.	.
.	.	8c#/J	.	.	.	.	.	.	.
.	.	8r	.	.	.	.	.	.	.
.	.	8e/	.	.	.	.	.	.	.
!!LO:MO:end
=8	=8	=8	=8	=8	=8	=8	=8	=8	=8
!	!	!	!	!	!	!	!	!	!LO:SIC:s=8f#L
8F#\L	6	16.a/LL	16.dd\LL	2a\	.	2dd\	.	8d\L	8f#X\L
.	.	32a/K	32dd\K	.	.	.	.	.	.
8F#\	.	16.a/	16.dd\	.	.	.	.	8d\	8f#\
.	.	32a/JJk	32dd\JJk	.	.	.	.	.	.
8F#\	.	16.a/LL	16.dd\LL	.	.	.	.	8d\	8f#\
.	.	32a/K	32dd\K	.	.	.	.	.	.
8F#\J	.	16.a/	16.dd\	.	.	.	.	8d\J	8f#\J
.	.	32a/JJk	32dd\JJk	.	.	.	.	.	.
8G\L	.	16.b/LL	16.dd\LL	2b\	-se-	2dd\	-se-	8d\L	8b\L
.	.	32b/K	32dd\K	.	.	.	.	.	.
8G\	.	16.b/	16.dd\	.	.	.	.	8d\	8b\
.	.	32b/JJk	32dd\JJk	.	.	.	.	.	.
8G\	.	16.b/LL	16.dd\LL	.	.	.	.	8d\	8b\
.	.	32b/K	32dd\K	.	.	.	.	.	.
8G\J	.	16.b/	16.dd\	.	.	.	.	8d\J	8b\J
.	.	32b/JJk	32dd\JJk	.	.	.	.	.	.
!	!	!LO:LB:g=original	!LO:LB:g=original	!	!	!	!	!	!
=9	=9	=9	=9	=9	=9	=9	=9	=9	=9
!LO:TX:t=P:problem=w źródle dwa krzyżyki - jeden przekreślony	!	!	!	!	!	!	!	!	!
8G#X\L	6	16.b/LL	16.ee\LL	2b\	-re-	2ee\	-re-	8e\L	8b\L
.	.	32b/K	32ee\K	.	.	.	.	.	.
8G#\	.	16.b/	16.ee\	.	.	.	.	8e\	8b\
.	.	32b/JJk	32ee\JJk	.	.	.	.	.	.
8G#\	.	16.b/LL	16.ee\LL	.	.	.	.	8e\	8b\
.	.	32b/K	32ee\K	.	.	.	.	.	.
8G#\J	.	16.b/	16.ee\	.	.	.	.	8e\J	8b\J
.	.	32b/JJk	32ee\JJk	.	.	.	.	.	.
!	!	!	!	!	!	!	!	!LO:MO:mod=*null:null	!LO:MO:mod=*null:null
*	*	*	*	*	*	*	*	*2\right	*2\right
8G#\L	-3	16.dd\LL	16.ffn\LL	2dd\	-re	2ffn\	-re	2d\	2fX\
.	.	32dd\K	32ff\K	.	.	.	.	.	.
8G#\	.	16.dd\	16.ff\	.	.	.	.	.	.
.	.	32dd\JJk	32ff\JJk	.	.	.	.	.	.
8G#\	.	16.dd\LL	16.ff\LL	.	.	.	.	.	.
.	.	32dd\K	32ff\K	.	.	.	.	.	.
8G#\J	.	16.dd\	16.ff\	.	.	.	.	.	.
.	.	32dd\JJk	32ff\JJk	.	.	.	.	.	.
=10	=10	=10	=10	=10	=10	=10	=10	=10	=10
!LO:TX:t=P:problem=mixed beam	!	!	!	!	!LO:MO:mod=no-	!LO:SIC:s=16ffn\LL	!LO:MO:mod=no-	!	!
8A\L	4	16.dd\LL	16.ffn\LL	16dd\LL	No-	16ff#\LL	no-	16d\LL	16fX\LL
.	.	.	.	16cc#\JJ	.	16ee\JJ	.	16A\J	16e\J
.	.	32cc#\JK	32ee\JK	.	.	.	.	.	.
8AA/	3	8cc#\J	8ee\J	8cc#\	-bis	8ee\	-bis	8A\J	8e\J
8AA/	.	8r	8r	8r	.	8r	.	4r	4r
!	!	!	!	!	!LO:MO:mod=mi-	!	!LO:MO:mod=mi-	!	!
8AA/J	.	8d/	8f#X/	8dd\	Mi-	8dd\	Mi-	.	.
16A\LL	.	8c#/L	8e/L	8cc#\L	-se-	8cc#\L	-se-	2r	2r
16A\	.	.	.	.	.	.	.	.	.
!	!	!	!LO:SIC:s=8f#	!	!	!	!	!	!
16A\	.	8d/	8f#X/	8dd\J	.	8dd\J	.	.	.
16A\JJ	.	.	.	.	.	.	.	.	.
16A\LL	.	8e/	8g/	8ee\	-re-	8ee\	-re-	.	.
16A\	.	.	.	.	.	.	.	.	.
!	!	!	!	!	!	!LO:LB:g=original	!	!	!
16A\	.	8d/J	8f#/J	8dd\	-re	8dd\	-re	.	.
16A\JJ	.	.	.	.	.	.	.	.	.
=11	=11	=11	=11	=11	=11	=11	=11	=11	=11
!LO:TX:t=P:problem=mixed beam	!	!LO:MO:mod=16.dLL	!	!	!LO:MO:mod=no-	!	!	!	!
8A\L	.	16d/LL	16.f#/LL	16dd\LL	No-	16dd\LL	no-	4r	4r
!	!	!LO:MO:mod=.	!	!	!	!	!	!	!
.	.	16c#/J	.	16cc#\JJ	.	16cc#\JJ	.	.	.
!	!	!LO:MO:null:mod=32c#J	!	!	!	!	!	!	!
.	.	.	32e/JK	.	.	.	.	.	.
8AA/	.	8c#/J	8e/J	8cc#\	-bis	8cc#\	-bis	.	.
8AA/	.	8r	8r	8r	.	8r	.	8r	8r
!	!	!	!	!	!LO:MO:mod=mi-	!	!LO:MO:mod=mi-	!	!
8AA/J	.	8dd\	8ff#\	8dd\	Mi-	8ff#X\	Mi-	8d\	8f#X\
16AA/LL	.	8cc#\L	8ee\L	8cc#\L	-se-	8ee\L	-se-	8A\L	8e\L
16AA/	.	.	.	.	.	.	.	.	.
16AA/	.	8dd\	8ff#\	8dd\J	.	8ff#\J	.	8d\	8f#\
16AA/JJ	.	.	.	.	.	.	.	.	.
16AA/LL	.	8ee\	8gg\	8ee\	-re-	8gg\	-re-	8e\	8g\
16AA/	.	.	.	.	.	.	.	.	.
16AA/	.	8dd\J	8ff#\J	8dd\	-re	8ff#\	-re	8d\J	8f#\J
16AA/JJ	.	.	.	.	.	.	.	.	.
=12	=12	=12	=12	=12	=12	=12	=12	=12	=12
!	!	!LO:MO:mod=16.ddLL	!	!	!LO:MO:mod=no-	!	!	!	!
8AA/L	.	16dd\LL	16.ff#\LL	16dd\LL	No-	16ff#\LL	no-	16d\LL	16f#\LL
!	!	!LO:MO:mod=.	!	!	!	!	!	!	!
.	.	16cc#\J	.	16cc#\JJ	.	16ee\JJ	.	16A\J	16e\J
!	!	!LO:MO:null:mod=32cc#J	!	!	!	!	!	!	!
.	.	.	32ee\JK	.	.	.	.	.	.
16AA/L	.	8cc#\J	8ee\J	8cc#\	-bis	8ee\	-bis	8A\J	8e\J
16AA/JJ	.	.	.	.	.	.	.	.	.
16AA/LL	.	8r	8r	8r	.	8r	.	8r	8r
16AA/	.	.	.	.	.	.	.	.	.
!	!	!	!	!	!LO:MO:mod=mi-	!	!LO:MO:mod=mi-	!	!
16AA/	.	8cc#\	8ee\	8cc#\	Mi-	8ee\	Mi-	8A/	8e\
16AA/JJ	.	.	.	.	.	.	.	.	.
!LO:TX:t=P:problem=mixed beam	!	!	!	!	!	!	!	!	!
8AA/L	.	16.cc#\LL	16.ee\LL	2cc#\	.	2ee\	.	8A/L	8e\L
.	.	32cc#\K	32ee\K	.	.	.	.	.	.
8A\	.	16.cc#\	16.ee\	.	.	.	.	8A/	8e\
.	.	32cc#\JJk	32ee\JJk	.	.	.	.	.	.
!LO:SIC:s=8G	!	!	!LO:LB:g=original	!	!	!	!	!	!
8Gn\	.	16.cc#\LL	16.ee\LL	.	.	.	.	8A/	8e\
.	.	32cc#\K	32ee\K	.	.	.	.	.	.
8G\J	2	16.cc#\	16.ee\	.	.	.	.	8A/J	8e\J
.	.	32cc#\JJk	32ee\JJk	.	.	.	.	.	.
!LO:LB:g=original	!	!LO:LB:g=original	!	!LO:LB:g=original	!	!	!	!	!
=13	=13	=13	=13	=13	=13	=13	=13	=13	=13
8F#\L	6	16.a/LL	16.dd\LL	2a\	-se-	2dd\	-se-	8d\L	8f#\L
.	.	32a/K	32dd\K	.	.	.	.	.	.
8F#\	.	16.a/	16.dd\	.	.	.	.	8d\	8f#\
.	.	32a/JJk	32dd\JJk	.	.	.	.	.	.
8F#\	.	16.a/LL	16.dd\LL	.	.	.	.	8d\	8f#\
.	.	32a/K	32dd\K	.	.	.	.	.	.
8F#\J	.	16.a/	16.dd\	.	.	.	.	8d\J	8f#\J
.	.	32a/JJk	32dd\JJk	.	.	.	.	.	.
8E\L	7	16.g/LL	16.dd\LL	2g/	-re-	2dd\	-re-	8d\L	8g\L
.	.	32g/K	32dd\K	.	.	.	.	.	.
8E\	.	16.g/	16.dd\	.	.	.	.	8d\	8g\
.	.	32g/JJk	32dd\JJk	.	.	.	.	.	.
8E\	.	16.g/LL	16.dd\LL	.	.	.	.	8d\	8g\
.	.	32g/K	32dd\K	.	.	.	.	.	.
8E\J	.	16.g/	16.dd\	.	.	.	.	8d\J	8g\J
.	.	32g/JJk	32dd\JJk	.	.	.	.	.	.
=14	=14	=14	=14	=14	=14	=14	=14	=14	=14
8AA/L	7	16.g/LL	16.cc#\LL	2g/	-re	2cc#\	-re	8A/L	8e\L
.	.	32g/K	32cc#\K	.	.	.	.	.	.
8AA/	.	16.g/	16.cc#\	.	.	.	.	8A/	8e\
.	.	32g/JJk	32cc#\JJk	.	.	.	.	.	.
8AA/	.	16.g/LL	16.cc#\LL	.	.	.	.	8A/	8e\
!	!	!	!LO:MO:mod=!null:null	!	!	!	!	!	!
!	!	!	!LO:N:vis=16	!	!	!	!	!	!
.	.	32g/K	32cc#\K	.	.	.	.	.	.
8AA/J	.	16.g/	16.cc#\	.	.	.	.	8A/J	8e\J
!	!	!	!LO:MO:mod=!null:null	!	!	!	!	!LO:LB:g=original	!
!	!	!	!LO:N:vis=16	!	!	!	!	!	!
.	.	32g/JJk	32cc#\JJk	.	.	.	.	.	.
!	!	!	!	!	!LO:MO:mod=no-	!	!LO:MO:mod=no-	!	!
8D/L	.	16.f#/LL	16.dd\LL	2f#/	No-	2dd\	No-	8d\L	8f#\L
.	.	32f#/K	32dd\K	.	.	.	.	.	.
8D/	.	16.f#/	16.dd\	.	.	.	.	8d\	8f#\
.	.	32f#/JJk	32dd\JJk	.	.	.	.	.	.
8D/	.	16.f#/LL	16.dd\LL	.	.	.	.	8d\	8f#\
.	.	32f#/K	32dd\K	.	.	.	.	.	.
8D/J	.	16.f#/	16.dd\	.	.	.	.	8d\J	8f#\J
.	.	32f#/JJk	32dd\JJk	.	.	.	.	.	.
=15	=15	=15	=15	=15	=15	=15	=15	=15	=15
8G#X\L	.	16.d/LL	16.fn/LL	2dd\	.	2ffn\	.	2d\	2fX\
!	!	!	!LO:MO:mod=!null:null	!	!	!	!	!	!
!	!	!	!LO:N:vis=16	!	!	!	!	!	!
.	.	32d/K	32f/K	.	.	.	.	.	.
8G#\	.	16.d/	16.f/	.	.	.	.	.	.
!	!	!	!LO:MO:mod=!null:null	!	!	!	!	!	!
!	!	!	!LO:N:vis=16	!	!	!	!	!	!
.	.	32d/JJk	32f/JJk	.	.	.	.	.	.
8G#\	.	16.d/LL	16.f/LL	.	.	.	.	.	.
.	.	32d/K	32f/K	.	.	.	.	.	.
8G#\J	.	16.d/	16.f/	.	.	.	.	.	.
.	.	32d/JJk	32f/JJk	.	.	.	.	.	.
!	!	!	!LO:LB:g=original	!	!	!	!	!	!
!LO:TX:t=P:problem=mixed beam	!	!	!	!	!	!	!	!	!
8A\L	.	16.d/LL	16.f/LL	16dd\LL	.	16ff\LL	.	16d\LL	16fX\LL
.	.	.	.	16cc#\JJ	.	16ee\JJ	.	16A\J	16e\J
.	.	32c#/JK	32e/JK	.	.	.	.	.	.
8AA/	.	8c#/J	8e/J	8cc#\	-bis	8ee\	-bis	8A\J	8e\J
8AA/J	.	8r	8r	8r	.	8r	.	4r	4r
!	!	!	!	!	!LO:MO:mod=mi-	!	!	!	!
8r	.	8a/	8aa\	8a\	Mi-	8a\	mi-	.	.
!	!	!LO:LB:g=original	!	!	!	!LO:LB:g=original	!	!	!
!LO:MO:mod==16||	!LO:MO:mod==16||	!LO:MO:mod==16||	!LO:MO:mod==16||	!LO:MO:mod==16||	!LO:MO:mod==16||	!LO:MO:mod==16||	!LO:MO:mod==16||	!LO:MO:mod==16||	!LO:MO:mod==16||
=16	=16	=16	=16	=16	=16	=16	=16	=16	=16
!!!OMD:
!!!OMD-mod: Allegro
*M3/8	*	*M3/8	*M3/8	*M3/8	*	*M3/8	*	*M3/8	*M3/8
!LO:TX:B:i:a:t=allo:mod=	!	!LO:TX:B:i:a:t=allo:mod=	!LO:TX:B:i:a:t=allo:mod=	!LO:TX:B:i:a:t=allo:mod=	!	!LO:TX:B:i:a:t=allo:mod=	!	!	!LO:TX:B:i:a:t=allo:mod=
!	!	!	!	!	!	!	!	!LO:TX:a:t=2.:mod=	!LO:TX:a:t=2.:mod=
4D/	.	4ff#\	4ddd\	4dd\	.	4dd\	.	2.r	2.r
8r	.	8ff#\	8aa\	8a\	-se-	8a\	-se-	.	.
=17	=17	=17	=17	=17	=17	=17	=17	=17	=17
4AA/	.	4gg\	4eee\	4cc#\	-re-	4ee\	-re-	.	.
8r	.	8ee\	8gg\	8ee\	-re	8gg\	-re	.	.
=18	=18	=18	=18	=18	=18	=18	=18	=18	=18
!	!	!	!	!	!LO:MO:mod=no-	!	!LO:MO:mod=no-	!	!
4D/	.	8dd\L	8ff#\L	4.dd\	No-	4.ff#\	No-	8r	8r
.	.	8ff#\	8ddd\	.	.	.	.	8f#\L	8dd\L
!	!	!	!	!	!	!	!	!LO:SIC:s=8dJ	!
8r	.	8dd\J	8ff#\J	.	.	.	.	8e\J	8f#\J
!	!	!	!	!	!	!	!	!	!LO:LB:g=original
=19	=19	=19	=19	=19	=19	=19	=19	=19	=19
!LO:TX:t=P:problem=mixed beam	!	!	!	!	!	!	!	!	!
8A\L	4	8dd\L	8ff#\L	8dd\	.	8ff#\	.	8d\L	8f#\L
8AA/J	3	8cc#\J	8ee\J	8cc#\	-bis	8ee\	-bis	8A\J	8e\J
8r	.	8f#/	8a/	8r	.	8r	.	8r	8r
=20	=20	=20	=20	=20	=20	=20	=20	=20	=20
!	!	!	!	!	!LO:MO:mod=mi-	!	!LO:MO:mod=mi-	!	!LO:TX:a:t=4:problem=slur above:mod=
4D/	.	4f#/	4dd\	4f#/	Mi-	4dd\	Mi-	1.r	1.r
8r	.	8f#/	8a/	8f#/	-se-	8a\	-se-	.	.
=21	=21	=21	=21	=21	=21	=21	=21	=21	=21
4AA/	.	4g/	4ee\	4g\	-re-	4ee\	-re-	.	.
8r	.	8e/	8g/	8e/	-re	8g/	-re	.	.
=22	=22	=22	=22	=22	=22	=22	=22	=22	=22
!	!	!	!	!	!LO:MO:mod=no-	!	!LO:MO:mod=no-	!	!
4D/	.	8d/L	8f#/L	4.d/	No-	4.f#/	No-	.	.
.	.	8f#/	8dd/	.	.	.	.	.	.
8r	.	8d/J	8f#/J	.	.	.	.	.	.
=23	=23	=23	=23	=23	=23	=23	=23	=23	=23
!LO:TX:t=P:problem=mixed beam	!	!	!	!	!	!	!	!	!
8A\L	4	8d/L	8f#/L	8d/	.	8f#/	.	.	.
8AA/	3	8c#/J	8e/J	8c#/	-bis	8e/	-bis	.	.
!LO:SIC:s=8GJ	!	!	!	!	!	!	!	!	!
8Gn\J	2	8e/	8cc#\	8r	.	8r	.	.	.
!LO:LB:g=original	!	!	!	!LO:LB:g=original	!	!	!	!	!
=24	=24	=24	=24	=24	=24	=24	=24	=24	=24
!!!OMD:
!!!OMD-mod: Adagio
*M4/4	*	*M4/4	*M4/4	*M4/4	*	*M4/4	*	*M4/4	*M4/4
*met(c)	*	*met(c)	*met(c)	*met(c)	*	*met(c)	*	*met(c)	*met(c)
*mmet(c)	*	*mmet(c)	*mmet(c)	*mmet(c)	*	*mmet(c)	*	*mmet(c)	*mmet(c)
!LO:TX:B:i:a:t=adagio:mod=	!	!LO:TX:B:i:a:t=adagio:mod=	!LO:TX:B:i:a:t=adagio:mod=	!	!LO:MO:mod=mi-	!LO:TX:B:i:a:t=adagio:mod=	!LO:MO:mod=mi-	!LO:TX:B:i:a:t=adagio:mod=	!LO:TX:B:i:a:t=adagio:mod=
8D\L	2	16.a/LL	16.dd\LL	4f#/	Mi-	4dd\	Mi-	8d\L	8f#\L
.	.	32a/K	32dd\K	.	.	.	.	.	.
8F#\	.	16.a/	16.dd\	.	.	.	.	8d\	8f#\
.	.	32a/JJk	32dd\JJk	.	.	.	.	.	.
!	!	!	!LO:LB:g=original	!	!	!	!	!	!
8F#\	.	16.a/LL	16.dd\LL	4a/	-se-	4dd\	-se-	8d\	8f#\
.	.	32a/K	32dd\K	.	.	.	.	.	.
8F#\J	.	16.a/	16.dd\	.	.	.	.	8d\J	8f#\J
.	.	32a/JJk	32dd\JJk	.	.	.	.	.	.
!	!	!	!	!	!	!LO:LB:g=original	!	!	!
8G\L	6	16.ee\LL	16.gg\LL	4ee\	-re-	4gg\	-re-	8e\L	8g\L
.	.	32ee\K	32gg\K	.	.	.	.	.	.
8G\	.	16.ee\	16.gg\	.	.	.	.	8e\	8g\
.	.	32ee\JJk	32gg\JJk	.	.	.	.	.	.
8G\	.	16.ee\LL	16.gg\LL	4ee\	-re	4gg\	-re	8e\	8g\
!	!	!	!LO:MO:mod=!null:null	!	!	!	!	!	!
!	!	!	!LO:N:vis=16	!	!	!	!	!	!
.	.	32ee\K	32gg\K	.	.	.	.	.	.
8G\J	.	16.ee\	16.gg\	.	.	.	.	8e\J	8g\J
!	!	!	!LO:MO:mod=!null:null	!	!	!	!	!	!
!	!	!	!LO:N:vis=16	!	!	!	!	!	!
.	.	32ee\JJk	32gg\JJk	.	.	.	.	.	.
=25	=25	=25	=25	=25	=25	=25	=25	=25	=25
!	!	!	!	!	!LO:MO:mod=no-	!	!LO:MO:mod=no-	!	!
8A\L	.	16.dd\LL	16.ff#\LL	2dd\	No-	2ff#\	No-	8d\L	8f#\L
.	.	32dd\K	32ff#\K	.	.	.	.	.	.
8A\	.	16.dd\	16.ff#\	.	.	.	.	8d\	8f#\
.	.	32dd\JJk	32ff#\JJk	.	.	.	.	.	.
!	!	!LO:LB:g=original	!	!	!	!	!	!	!
8A\	.	16.dd\LL	16.ff#\LL	.	.	.	.	8d\	8f#\
.	.	32dd\K	32ff#\K	.	.	.	.	.	.
8A\J	.	16.dd\	16.ff#\	.	.	.	.	8d\J	8f#\J
.	.	32dd\JJk	32ff#\JJk	.	.	.	.	.	.
8AA/L	3	16.cc#\LL	16.ee\LL	2cc#\	.	2ee\	.	8A/L	8e\L
.	.	32cc#\K	32ee\K	.	.	.	.	.	.
8AA/	.	16.cc#\	16.ee\	.	.	.	.	8A/	8e\
.	.	32cc#\JJk	32ee\JJk	.	.	.	.	.	.
8AA/	.	16.cc#\LL	16.ee\LL	.	.	.	.	8A/	8e\
.	.	32cc#\K	32ee\K	.	.	.	.	.	.
8AA/J	.	16.cc#\	16.ee\	.	.	.	.	8A/J	8e\J
.	.	32cc#\JJk	32ee\JJk	.	.	.	.	.	.
=26	=26	=26	=26	=26	=26	=26	=26	=26	=26
!LO:MO:mod=!null:null	!	!LO:MO:mod=!null:null	!LO:MO:mod=!null:null	!	!	!	!	!	!
*2\right	*	*2\right	*2\right	*	*	*	*	*	*
!	!	!	!	!	!LO:MO:mod=-bis.	!	!LO:MO:mod=-bis.	!	!
2D/	.	2dd\	2dd\	2dd\	-bis	2dd\	-bis	2F#/	2d\
2rBB	.	2r	2r	2r	.	2r	.	2r	2r
==	==	==	==	==	==	==	==	==	==
*-	*-	*-	*-	*-	*-	*-	*-	*-	*-
!!!system-decoration: [(s1,s2)][(s3,s4)][(s5,s6)]<s7>
!!!filter-modern: shed -e "s/:rj/:RJ/L" | shed -e "s/TX(.*):t=P:/tx$1:t=P:/LG" | sic -sq | modori -m | autostem -r | tie -s | humtr -p | shed -e "s/yy//"
!!!ENC: Berenika Jozajtis
!!!END: 2020-04-20
!!!ENC: Mateusz Mrugas
!!!END: 2020-10-02
!!!ENC-modern: Andrzej Kubiczek
!!!END-modern: 2022-06-29
!!!YEC: Copyright 2022 Narodowy Instytut Fryderyka Chopina (https://polishscores.org)
!!!YEM: License CC-BY-4.0 (https://creativecommons.org/licenses/by/4.0)
